assets/ballerina/original.svg

<svg viewBox="0 0 128 128" xmlns="http://www.w3.org/2000/svg"><path d="m29 35.9255v-35.9255h30.0817v47.4297zm0 26.9949 20.5892-7.8739-20.5892-7.874zm0 11.247v53.8326h15.4579l14.6238-47.9363v-17.4005zm70.5874-38.2419v-35.9255h-30.0817v47.4297zm0 11.247-20.5892 7.874 20.5892 7.8739zm-30.0817 15.4907v17.4005l14.6238 47.9363h15.4579v-53.8326z" fill="#46c0bc"/></svg>

<svg xmlns="http://www.w3.org/2000/svg" viewBox="0 0 128 128"><path fill="#46c0bc" d="M29 35.926V0h30.082v47.43zm0 26.994 20.59-7.874L29 47.174zm0 11.247V128h15.458l14.624-47.936v-17.4zm70.587-38.241V0H69.506v47.43zm0 11.246-20.589 7.875 20.59 7.873zM69.506 62.664v17.4L84.13 128h15.457V74.167z"/></svg>
